img/cactus.svg

<svg id="Layer_1" height="512" viewBox="0 0 128 128" width="512" xmlns="http://www.w3.org/2000/svg" data-name="Layer 1"><path d="m103.81 31.692v13.34a27.66 27.66 0 0 1 -27.66 27.66h-12.15v-15h12.15a12.66 12.66 0 0 0 12.66-12.66v-13.34a7.5 7.5 0 0 1 7.5-7.5 7.5 7.5 0 0 1 7.5 7.5z" fill="#51a448"/><path d="m64 76.852v15h-12.15a27.66 27.66 0 0 1 -27.66-27.66v-13.34a7.5 7.5 0 0 1 7.5-7.5 7.5 7.5 0 0 1 7.5 7.5v13.348a12.65 12.65 0 0 0 12.65 12.65z" fill="#51a448"/><path d="m74 121.5h-20l-3.764-94.678a13.775 13.775 0 0 1 13.764-14.322 13.775 13.775 0 0 1 13.764 14.322z" fill="#72bd39"/><g fill="#26180d"><path d="m102.852 25.156a9.158 9.158 0 0 0 -6.542-2.716 9.26 9.26 0 0 0 -9.25 9.25v13.34a10.836 10.836 0 0 1 -8.693 10.67l.422-10.6h4.305a1.75 1.75 0 0 0 0-3.5h-4.166l.494-12.415h4.354a1.75 1.75 0 0 0 0-3.5h-4.276a15.334 15.334 0 0 0 -3.295-9.007l2.827-3.811a1.75 1.75 0 1 0 -2.811-2.086l-2.516 3.39a15.313 15.313 0 0 0 -7.957-3.321v-4.35a1.75 1.75 0 0 0 -3.5 0v4.354a15.311 15.311 0 0 0 -7.957 3.321l-2.516-3.391a1.75 1.75 0 0 0 -2.811 2.086l2.828 3.811a15.328 15.328 0 0 0 -3.3 9.006h-4.267a1.75 1.75 0 0 0 0 3.5h4.354l.493 12.413h-4.166a1.75 1.75 0 0 0 0 3.5h4.305l.236 5.928a1.75 1.75 0 1 0 3.5-.139l-.3-7.456c0-.028.008-.055.008-.083a1.716 1.716 0 0 0 -.019-.192l-.653-16.408a12.025 12.025 0 1 1 24.03 0l-.653 16.42a1.729 1.729 0 0 0 -.018.18c0 .027.007.052.008.078l-.566 14.242v.058.011l-1.167 29.317a1.751 1.751 0 0 0 1.68 1.818h.07a1.751 1.751 0 0 0 1.748-1.681l1.11-27.914a14.318 14.318 0 0 0 12.335-14.249v-13.34a5.756 5.756 0 0 1 5.75-5.75 5.758 5.758 0 0 1 5.75 5.75v13.34a25.934 25.934 0 0 1 -17.375 24.47 1.75 1.75 0 1 0 1.152 3.3 29.436 29.436 0 0 0 19.723-27.77v-13.34a9.151 9.151 0 0 0 -2.708-6.534z"/><path d="m74.775 102h.07a1.751 1.751 0 0 0 1.748-1.681l.2-5a1.75 1.75 0 0 0 -3.5-.139l-.2 5a1.751 1.751 0 0 0 1.682 1.82z"/><path d="m59.379 107.543h.071a1.75 1.75 0 0 0 1.679-1.818l-1.543-38.794a1.75 1.75 0 1 0 -3.5.139l1.542 38.793a1.75 1.75 0 0 0 1.751 1.68z"/><path d="m103.809 119.75h-27.988l.465-11.684a1.75 1.75 0 1 0 -3.5-.139l-.47 11.822h-16.634l-1.7-42.873c0-.009 0-.018 0-.027s-.006-.041-.006-.062l-.736-18.524a1.77 1.77 0 0 0 -1.818-1.68 1.75 1.75 0 0 0 -1.682 1.817l.66 16.591a10.908 10.908 0 0 1 -9.46-10.791v-13.35a9.261 9.261 0 0 0 -9.25-9.25 9.26 9.26 0 0 0 -9.25 9.25v13.34a29.438 29.438 0 0 0 28.7 29.391l1.04 26.168h-27.989a1.75 1.75 0 1 0 0 3.5h79.618a1.75 1.75 0 0 0 0-3.5zm-77.869-55.56v-13.34a5.756 5.756 0 0 1 5.75-5.75 5.761 5.761 0 0 1 5.75 5.75v13.35a14.415 14.415 0 0 0 13.1 14.334l.46 11.544a25.936 25.936 0 0 1 -25.06-25.888z"/></g></svg>

<?xml version="1.0" encoding="UTF-8" standalone="no"?>
<svg
   xmlns:dc="http://purl.org/dc/elements/1.1/"
   xmlns:cc="http://creativecommons.org/ns#"
   xmlns:rdf="http://www.w3.org/1999/02/22-rdf-syntax-ns#"
   xmlns:svg="http://www.w3.org/2000/svg"
   xmlns="http://www.w3.org/2000/svg"
   xmlns:sodipodi="http://sodipodi.sourceforge.net/DTD/sodipodi-0.dtd"
   xmlns:inkscape="http://www.inkscape.org/namespaces/inkscape"
   id="Layer_1"
   height="473.996"
   viewBox="0 0 83.120071 118.499"
   width="332.48029"
   data-name="Layer 1"
   version="1.1"
   sodipodi:docname="cactus.svg"
   inkscape:version="0.92.4 (5da689c313, 2019-01-14)">
  <metadata
     id="metadata23">
    <rdf:RDF>
      <cc:Work
         rdf:about="">
        <dc:format>image/svg+xml</dc:format>
        <dc:type
           rdf:resource="http://purl.org/dc/dcmitype/StillImage" />
        <dc:title></dc:title>
      </cc:Work>
    </rdf:RDF>
  </metadata>
  <defs
     id="defs21" />
  <sodipodi:namedview
     pagecolor="#ffffff"
     bordercolor="#666666"
     borderopacity="1"
     objecttolerance="10"
     gridtolerance="10"
     guidetolerance="10"
     inkscape:pageopacity="0"
     inkscape:pageshadow="2"
     inkscape:window-width="1920"
     inkscape:window-height="1001"
     id="namedview19"
     showgrid="false"
     fit-margin-top="0"
     fit-margin-left="0"
     fit-margin-right="0"
     fit-margin-bottom="0"
     inkscape:zoom="0.4609375"
     inkscape:cx="166.24"
     inkscape:cy="497.33498"
     inkscape:window-x="-9"
     inkscape:window-y="-9"
     inkscape:window-maximized="1"
     inkscape:current-layer="Layer_1" />
  <path
     d="m 81.37,26.942 v 13.34 A 27.66,27.66 0 0 1 53.71,67.942 H 41.56 v -15 h 12.15 a 12.66,12.66 0 0 0 12.66,-12.66 v -13.34 a 7.5,7.5 0 0 1 7.5,-7.5 7.5,7.5 0 0 1 7.5,7.5 z"
     id="path2"
     inkscape:connector-curvature="0"
     style="fill:#51a448" />
  <path
     d="m 41.56,72.102 v 15 H 29.41 A 27.66,27.66 0 0 1 1.75,59.442 v -13.34 a 7.5,7.5 0 0 1 7.5,-7.5 7.5,7.5 0 0 1 7.5,7.5 V 59.45 A 12.65,12.65 0 0 0 29.4,72.1 Z"
     id="path4"
     inkscape:connector-curvature="0"
     style="fill:#51a448" />
  <path
     d="m 51.56,116.75 h -20 L 27.796,22.072 A 13.775,13.775 0 0 1 41.56,7.75 13.775,13.775 0 0 1 55.324,22.072 Z"
     id="path6"
     inkscape:connector-curvature="0"
     style="fill:#72bd39" />
  <g
     id="g16"
     style="fill:#26180d"
     transform="translate(-22.44,-4.75)">
    <path
       d="M 102.852,25.156 A 9.158,9.158 0 0 0 96.31,22.44 9.26,9.26 0 0 0 87.06,31.69 V 45.03 A 10.836,10.836 0 0 1 78.367,55.7 l 0.422,-10.6 h 4.305 a 1.75,1.75 0 0 0 0,-3.5 h -4.166 l 0.494,-12.415 h 4.354 a 1.75,1.75 0 0 0 0,-3.5 H 79.5 a 15.334,15.334 0 0 0 -3.295,-9.007 l 2.827,-3.811 a 1.7502226,1.7502226 0 1 0 -2.811,-2.086 l -2.516,3.39 A 15.313,15.313 0 0 0 65.748,10.85 V 6.5 a 1.75,1.75 0 0 0 -3.5,0 v 4.354 a 15.311,15.311 0 0 0 -7.957,3.321 l -2.516,-3.391 a 1.7502226,1.7502226 0 0 0 -2.811,2.086 l 2.828,3.811 a 15.328,15.328 0 0 0 -3.3,9.006 h -4.267 a 1.75,1.75 0 0 0 0,3.5 h 4.354 L 49.072,41.6 h -4.166 a 1.75,1.75 0 0 0 0,3.5 h 4.305 l 0.236,5.928 a 1.7513795,1.7513795 0 1 0 3.5,-0.139 l -0.3,-7.456 c 0,-0.028 0.008,-0.055 0.008,-0.083 A 1.716,1.716 0 0 0 52.636,43.158 L 51.983,26.75 a 12.025,12.025 0 1 1 24.03,0 L 75.36,43.17 a 1.729,1.729 0 0 0 -0.018,0.18 c 0,0.027 0.007,0.052 0.008,0.078 L 74.784,57.67 v 0.058 0.011 l -1.167,29.317 a 1.751,1.751 0 0 0 1.68,1.818 h 0.07 a 1.751,1.751 0 0 0 1.748,-1.681 l 1.11,-27.914 A 14.318,14.318 0 0 0 90.56,45.03 V 31.69 a 5.756,5.756 0 0 1 5.75,-5.75 5.758,5.758 0 0 1 5.75,5.75 V 45.03 A 25.934,25.934 0 0 1 84.685,69.5 1.75,1.75 0 1 0 85.837,72.8 29.436,29.436 0 0 0 105.56,45.03 V 31.69 a 9.151,9.151 0 0 0 -2.708,-6.534 z"
       id="path8"
       inkscape:connector-curvature="0" />
    <path
       d="m 74.775,102 h 0.07 a 1.751,1.751 0 0 0 1.748,-1.681 l 0.2,-5 a 1.7513795,1.7513795 0 0 0 -3.5,-0.139 l -0.2,5 a 1.751,1.751 0 0 0 1.682,1.82 z"
       id="path10"
       inkscape:connector-curvature="0" />
    <path
       d="m 59.379,107.543 h 0.071 a 1.75,1.75 0 0 0 1.679,-1.818 L 59.586,66.931 a 1.7513795,1.7513795 0 1 0 -3.5,0.139 l 1.542,38.793 a 1.75,1.75 0 0 0 1.751,1.68 z"
       id="path12"
       inkscape:connector-curvature="0" />
    <path
       d="M 103.809,119.75 H 75.821 l 0.465,-11.684 a 1.7513795,1.7513795 0 1 0 -3.5,-0.139 l -0.47,11.822 H 55.682 l -1.7,-42.873 c 0,-0.009 0,-0.018 0,-0.027 0,-0.009 -0.006,-0.041 -0.006,-0.062 L 53.24,58.263 A 1.77,1.77 0 0 0 51.422,56.583 1.75,1.75 0 0 0 49.74,58.4 L 50.4,74.991 A 10.908,10.908 0 0 1 40.94,64.2 V 50.85 a 9.261,9.261 0 0 0 -9.25,-9.25 9.26,9.26 0 0 0 -9.25,9.25 v 13.34 a 29.438,29.438 0 0 0 28.7,29.391 l 1.04,26.168 H 24.191 a 1.75,1.75 0 1 0 0,3.5 h 79.618 a 1.75,1.75 0 0 0 0,-3.5 z M 25.94,64.19 V 50.85 a 5.756,5.756 0 0 1 5.75,-5.75 5.761,5.761 0 0 1 5.75,5.75 V 64.2 a 14.415,14.415 0 0 0 13.1,14.334 L 51,90.078 A 25.936,25.936 0 0 1 25.94,64.19 Z"
       id="path14"
       inkscape:connector-curvature="0" />
  </g>
</svg>
